!!! OTL: Berkowitz233
!!! Chapter: 1
!!! Section: II
!!! Page: 53
!!! Mode: 
!!! Encoder: DJB
**kern
*staff1
*I"Piano
=1-
*clefG2
*k[b-e-a-d-]
*A-:
*M3/4
8cc\L
8b-\J
4a-/
4cc\
=2
8e-/L
8f/J
2e-/
=3
8e-/L
8b-/J
2e-/
=4
8e-/L
8cc/J
2e-/
=5
8dd-\L
8cc\J
4b-\
4dd-\
=6
8e-/L
8f/J
2e-/
=7
4f/
4b-\
4g/
=8
2a-/
4cc\
=9
4ee-\
4b-\
4ee-\
=10
8cc\L
8b-\J
2a-/
=11
!!linebreak:original
8b-/L
8e-/J
2e-/
=12
8cc/L
8e-/J
2e-/
=13
8dd-\L
8cc\J
4b-\
4dd-\
=14
8e-/L
8f/J
2e-/
=15
4f/
4g/
4ee-\
=16
4.a-/
8r
4r
==
*-
